X:1
T:The Beautiful Home
T:The Beautiful Home
T:J. I. Shell
T:Mary Jane (Jennie) Wilson, 1913
T:Public Domain Courtesy of the Cyber Hymnal™
T:Public Domain Courtesy of the Cyber Hymnal™
C:J. I. Shell
Z:Public Domain
Z:Courtesy of the Cyber Hymnal™
%%score ( 1 2 ) ( 3 4 )
L:1/8
Q:1/4=98
M:4/4
K:G
V:1 treble 
V:2 treble 
V:3 bass 
V:4 bass 
V:1
 [GB][Gc] | [Gd]2 [Gd][GB] [DG]2 [B,G][DF] | [CE]2 [EG][CE] [B,D]2 [DG][DA] | %3
w: 1.~There’s a|beau- ti- ful home for the|child- ren of God, Where no|
w: 2.~Oh! how|sweet it will be in the|ci- ty a- bove, Which no|
w: 3.~While on|earth we shall stay, let us|ev- er be true Un- to|
 [GB]2 [GB][GB] [Gd]2 [Ad][GB] | [FA]6 [GB][Gc] | [Gd]2 [Ac][GB] [FA]2 [FA][GB] | %6
w: tri- al will ev- er mo-|lest; When the|oft wea- ry path- way of|
w: e- vil can en- ter for|aye, With our|Sav- ior and those He re-|
w: Je- sus and turn from all|wrong; Then that|beau- ti- ful home soon with|
 [Gc]2 [Gc][Gc] [Gc]2 [GB][Ac] | [Bd]2 [Gd][Ge] [GB]2 [FB][FA] | [DG]6 ||"^Refrain" [DB][Dc] | %10
w: time has been trod, In the|man- sions a- bove will come|rest.||
w: deems by His love, To a-|bide with all grief passed a-|way!|By the|
w: rap- ture we’ll view, And take|part in the heav- en- ly|song.||
 d6 [GB][GA] | G6 [DG][DA] | B6 G[GB] | A6 [DB][Dc] | d6 [GB][FA] | G6 [DF][EG] | A6 [GB][FA] | %17
w: |||||||
w: ri- ver of|life With the|blest we will|roam, And re-|joice ev- er-|more, In that|beau- ti- ful|
w: |||||||
 G6 |] %18
w: |
w: home.|
w: |
V:2
 x2 | x8 | x8 | x8 | x8 | x8 | x8 | x8 | x6 || x2 | (G2 GG G2) x2 | (D2 DD D2) x2 | %12
 (G2 GG G2) G x | (FFFF F2) x2 | (G2 GG G2) x2 | (E2 EE E2) x2 | (F2 FF F2) x2 | (GDEE D2) |] %18
V:3
 [G,D][G,A,] | [G,B,]2 [G,B,][G,D] [G,B,]2 [G,,G,][B,,G,] | %2
w: ~ ~|~ ~ ~ ~ ~ ~|
 [C,G,]2 [C,G,][C,G,] [G,,G,]2 [G,B,][G,C] | [G,D]2 [G,D][G,D] [G,B,]2 [F,D][G,D] | %4
w: ~ ~ ~ ~ ~ ~|~ ~ ~ ~ ~ ~|
 [D,D]6 [G,D][G,A,] | [G,B,]2 [F,D][G,D] [D,D]2 [D,D][G,D] | [C,E]2 [C,E][C,E] [C,E]2 [G,D][G,D] | %7
w: ~ ~ ~|~ ~ ~ ~ ~ ~|~ ~ ~ ~ ~ ~|
 [G,D]2 [G,B,][E,B,] [D,D]2 [D,D][D,C] | [G,,B,]6 || G,G, | B,6 [G,D][G,C] | B,6 [G,B,][G,C] | %12
w: ~ ~ ~ ~ ~ ~|~|By the|riv- er of|life, by the|
 D6 [B,D][G,D] | [D,D][D,D][D,D][D,D] [D,D]2 G,[G,A,] | B,6 [G,D][D,C] | B,6 [B,,B,][E,B,] | %16
w: riv- er of|life, With the blest, with the blest,|We will roam,|yes, ev- er|
 C6 [D,D][D,C] | B,B,CC B,2 |] %18
w: roam. And re-|joice, and re- joice, Ev-|
V:4
 x2 | x8 | x8 | x8 | x8 | x8 | x8 | x8 | x6 || G,G, | G,2 G,G, G,2 x2 | G,2 G,G, G,2 x2 | %12
 G,2 G,G, G,2 x2 | x6 G, x | G,2 G,G, G,2 x2 | E,2 E,E, E,2 x2 | D,2 D,D, D,2 x2 | G,,6 |] %18

